dist/svgs/unicons/solid/align-letter-right.svg

<svg xmlns="http://www.w3.org/2000/svg" viewBox="0 0 24 24"><path d="M21 20H3c-.6 0-1 .4-1 1s.4 1 1 1h18c.6 0 1-.4 1-1s-.4-1-1-1zM10 4h11c.6 0 1-.4 1-1s-.4-1-1-1H10c-.6 0-1 .4-1 1s.4 1 1 1zm11 12H11c-.6 0-1 .4-1 1s.4 1 1 1h10c.6 0 1-.4 1-1s-.4-1-1-1zm0-6H3c-.6 0-1 .4-1 1s.4 1 1 1h18c.6 0 1-.4 1-1s-.4-1-1-1zm0-4H3c-.6 0-1 .4-1 1s.4 1 1 1h18c.6 0 1-.4 1-1s-.4-1-1-1z"/></svg>

<svg xmlns="http://www.w3.org/2000/svg" enable-background="new 0 0 24 24" viewBox="0 0 24 24"><path d="M21,20H3c-0.6,0-1,0.4-1,1s0.4,1,1,1h18c0.6,0,1-0.4,1-1S21.6,20,21,20z M10,4h11c0.6,0,1-0.4,1-1s-0.4-1-1-1H10C9.4,2,9,2.4,9,3S9.4,4,10,4z M21,16H11c-0.6,0-1,0.4-1,1s0.4,1,1,1h10c0.6,0,1-0.4,1-1S21.6,16,21,16z M21,10H3c-0.6,0-1,0.4-1,1s0.4,1,1,1h18c0.6,0,1-0.4,1-1S21.6,10,21,10z M21,6H3C2.4,6,2,6.4,2,7s0.4,1,1,1h18c0.6,0,1-0.4,1-1S21.6,6,21,6z"/></svg>
